X:1
T:Title
%%score 1 2
L:1/8
Q:1/4=90
M:3/4
K:C
V:1 treble nm="Grand Piano, Soprano"
V:2 bass nm="Choir Pad, Buckley, Silas J. Vail, 1868"
V:1
 [EG]2 [Ec][CE] [EG][Ec] | [Fc][FA] [EG]4 | [Gc]2 [FB]3 [FB] | [FA][FB] [Ec]4 | %4
w: By~Silas~Jones~Vail,~1868 * * * *||||
 [Ec]2 [Fd][FB] [Ec][EG] | [FA][DG] [EG]4 | [Gc]>B [FA]3 [FA] | [FB][FG] [Ec]4- | [Ec]4 z2 |] %9
w: |||||
V:2
 [C,G,]2 [C,G,][C,G,] [C,G,][C,G,] | [C,A,][C,C] [C,C]4 | [E,C]2 [G,D]3 [G,D] | [G,D][G,D] [C,C]4 | %4
 [C,C]2 [G,B,][G,D] [G,C][G,C] | [G,B,][G,B,] [C,C]4 | [E,C]2 [F,C]3 [D,D] | [G,D][G,D] [C,C]4- | %8
 [C,C]4 z2 |] %9

